X: 021188
T: Bobby Casey's [B]
R: jig
M: 6/8
L: 1/8
S: "Raise the Rafters" (PJ King, K.Crawford, M.O Malley)
Z: B.Black
K: G
e|ged B2A|BGE G2A|BdB ABA|GBd e2f|
ged B2A|BGE G2A|BdB ABc|BGF G2 :|
z|def g3|eaa a3|bag e2d|e2g egg|
def g3|afd e2g|edB A2A|AGF G2 :|
